Simply white circles/scalable/actions/view-fullscreen.svg

<svg xmlns="http://www.w3.org/2000/svg" width="24" height="24">
  <path fill="#e6e6e6" d="M4.9277344 5.0234375v5.0000005h2V7.0234375h3v-2h-5zm8.9999996 0v2h3v3.0000005h2V5.0234375h-5zM4.9277344 14.023438v5h5v-2h-3v-3h-2zm11.9999996 0v3h-3v2h5v-5h-2z"/>
</svg>

<?xml version="1.0" encoding="UTF-8" standalone="no"?>
<svg
   xmlns:dc="http://purl.org/dc/elements/1.1/"
   xmlns:cc="http://creativecommons.org/ns#"
   xmlns:rdf="http://www.w3.org/1999/02/22-rdf-syntax-ns#"
   xmlns:svg="http://www.w3.org/2000/svg"
   xmlns="http://www.w3.org/2000/svg"
   xmlns:sodipodi="http://sodipodi.sourceforge.net/DTD/sodipodi-0.dtd"
   xmlns:inkscape="http://www.inkscape.org/namespaces/inkscape"
   viewBox="0 0 24 24"
   version="1.1"
   id="svg4"
   sodipodi:docname="view-fullscreen.svg"
   inkscape:version="0.92.3 (2405546, 2018-03-11)"
   width="24"
   height="24"
   style="fill:#000000">
  <metadata
     id="metadata10">
    <rdf:RDF>
      <cc:Work
         rdf:about="">
        <dc:format>image/svg+xml</dc:format>
        <dc:type
           rdf:resource="http://purl.org/dc/dcmitype/StillImage" />
        <dc:title></dc:title>
      </cc:Work>
    </rdf:RDF>
  </metadata>
  <defs
     id="defs8" />
  <sodipodi:namedview
     pagecolor="#ffffff"
     bordercolor="#666666"
     borderopacity="1"
     objecttolerance="10"
     gridtolerance="10"
     guidetolerance="10"
     inkscape:pageopacity="0"
     inkscape:pageshadow="2"
     inkscape:window-width="1366"
     inkscape:window-height="719"
     id="namedview6"
     showgrid="false"
     inkscape:zoom="20.625"
     inkscape:cx="1.8666666"
     inkscape:cy="11.806061"
     inkscape:window-x="0"
     inkscape:window-y="25"
     inkscape:window-maximized="1"
     inkscape:current-layer="svg4"
     showguides="true"
     inkscape:guide-bbox="true" />
  <path
     style="fill:#e6e6e6;stroke-width:0.5"
     d="M 4.9277344 5.0234375 L 4.9277344 10.023438 L 6.9277344 10.023438 L 6.9277344 7.0234375 L 9.9277344 7.0234375 L 9.9277344 5.0234375 L 4.9277344 5.0234375 z M 13.927734 5.0234375 L 13.927734 7.0234375 L 16.927734 7.0234375 L 16.927734 10.023438 L 18.927734 10.023438 L 18.927734 5.0234375 L 13.927734 5.0234375 z M 4.9277344 14.023438 L 4.9277344 19.023438 L 9.9277344 19.023438 L 9.9277344 17.023438 L 6.9277344 17.023438 L 6.9277344 14.023438 L 4.9277344 14.023438 z M 16.927734 14.023438 L 16.927734 17.023438 L 13.927734 17.023438 L 13.927734 19.023438 L 18.927734 19.023438 L 18.927734 14.023438 L 16.927734 14.023438 z "
     id="path822" />
</svg>
